X:438
T: UND ALS DIE SCHNEIDER JAHRESTAG HATTEN
N: E1635
O: Europa, Mitteleuropa, Deutschland, Berlin
R: Staende -, Handwerker - Lied, Schneider
M: 2/4
L: 1/8
K: G
D | GGGG | GGD
D | GGBG | d2z
B | cccc | e2cz |
BBBB | d2B
B | AGAB | G2z

@@@ Tune index: 5122
